assets/sonr-icons/user-group.svg

<svg xmlns="http://www.w3.org/2000/svg" width="24" height="24" fill="none"><path fill="currentColor" d="M7 8a2 2 0 0 1 2-2 1 1 0 0 0 0-2 4 4 0 0 0 0 8 1 1 0 0 0 0-2 2 2 0 0 1-2-2m-3 9.667C4 16.747 4.746 16 5.667 16H6a1 1 0 0 0 0-2h-.333A3.667 3.667 0 0 0 2 17.667 2.334 2.334 0 0 0 4.333 20h1.666a1 1 0 0 0 0-2H4.333A.333.333 0 0 1 4 17.667M15 4a4 4 0 1 0 0 8 4 4 0 0 0 0-8m-2 4a2 2 0 1 1 3.999-.001A2 2 0 0 1 13 8m-1.333 6A3.667 3.667 0 0 0 8 17.667 2.334 2.334 0 0 0 10.333 20h9.334A2.334 2.334 0 0 0 22 17.667 3.667 3.667 0 0 0 18.333 14zM10 17.667c0-.92.746-1.667 1.666-1.667h6.667c.92 0 1.667.746 1.667 1.667a.333.333 0 0 1-.333.333h-9.334a.333.333 0 0 1-.333-.333"/></svg>

<svg xmlns="http://www.w3.org/2000/svg" width="24" height="24" fill="none" viewBox="0 0 24 24"><path fill="#000" d="M7 8C7 6.895 7.895 6 9 6C9.552 6 10 5.552 10 5C10 4.448 9.552 4 9 4C6.791 4 5 5.791 5 8C5 10.209 6.791 12 9 12C9.552 12 10 11.552 10 11C10 10.448 9.552 10 9 10C7.895 10 7 9.105 7 8ZM4 17.667C4 16.747 4.746 16 5.667 16H6C6.552 16 7 15.552 7 15C7 14.448 6.552 14 6 14H5.667C3.642 14 2 15.642 2 17.667C2 18.955 3.045 20 4.333 20H5.999C6.551 20 6.999 19.552 6.999 19C6.999 18.448 6.551 18 5.999 18H4.333C4.149 18 4 17.851 4 17.667ZM15 4C12.791 4 11 5.791 11 8C11 10.209 12.791 12 15 12C17.209 12 19 10.209 19 8C19 5.791 17.209 4 15 4ZM13 8C13 6.895 13.895 6 15 6C16.105 6 17 6.895 17 8C17 9.105 16.105 10 15 10C13.895 10 13 9.105 13 8ZM11.667 14C9.642 14 8 15.642 8 17.667C8 18.955 9.045 20 10.333 20H19.667C20.955 20 22 18.955 22 17.667C22 15.642 20.358 14 18.333 14H11.667ZM10 17.667C10 16.747 10.746 16 11.666 16H18.333C19.253 16 20 16.746 20 17.667C20 17.851 19.851 18 19.667 18H10.333C10.149 18 10 17.851 10 17.667Z"/></svg>
